src/assets/icons/bubble/shield.svg

<svg xmlns="http://www.w3.org/2000/svg" width="56" height="56" viewBox="0 0 56 56">
  <g fill="none">
    <circle cx="28" cy="28" r="28" fill="#EBF8FF"/>
    <path fill="#00B7FF" d="M39.0399975,16.2002342 L28.2399987,14.0234561 C28.0847343,13.9921813 27.9248631,13.9921813 27.7695987,14.0234561 L16.9695999,16.2002342 C16.4065417,16.3112464 16,16.8083892 16,17.3865782 L16,29.6974674 C16,39.3720366 28,43 28,43 C28,43 40,39.3720366 40,29.6974674 L40,17.3865782 C40.0006846,16.8113716 39.599239,16.3152752 39.0399975,16.2002342 Z M26.8683988,33.8950211 L21.5031994,28.4881463 L23.1999992,26.7781662 L26.7315988,30.3371983 L33.870398,21.9457189 L35.6919978,23.5178364 L26.8683988,33.8950211 Z"/>
  </g>
</svg>

<svg xmlns="http://www.w3.org/2000/svg" width="56" height="56"><g fill="none"><circle cx="28" cy="28" r="28" fill="#EBF8FF"/><path fill="#00B7FF" d="M39.04 16.2l-10.8-2.177a1.19 1.19 0 00-.47 0L16.97 16.2c-.563.111-.97.608-.97 1.187v12.31C16 39.372 28 43 28 43s12-3.628 12-13.303v-12.31c0-.576-.4-1.072-.96-1.187zM26.868 33.895l-5.365-5.407 1.697-1.71 3.532 3.56 7.138-8.392 1.822 1.572-8.824 10.377z"/></g></svg>
